X:33
T:Fandango THO4.033, The
M:6/8
L:1/8
Z:vmp. Peter Dunk 2010/11.from a transcription by Fynn Titford-Mock 2007
B:Thompson's Compleat Collection of 200 Favourite Country Dances Volume IV.
Q:3/8=120
K:D
d2 d dcd|B2 G FGA|d2 d d3|fda f2 d|\
d2 d dcd|B2 G FGA|d2 d d2 g|e2 a f2 d:|
|:aba f2 d|AFd AFd|aba f2 d|BGd BGd|\
aba f2 d|B2 G F2 A|B2 d e2 c|d3-d3:|
